X: 24
T: JIGS: Trip to Sligo Set
T: Trip to Sligo
C: C: Trad.; S: Various
C: Set Leaders: André, Sophie, Anton, Tania
Z: Anton Zille ed. arr., Oleg Naumov arr.; Fernando Durbán Galnares / Umo / NfldWhistler at The Session
N: https://thesession.org/members/26966/sets/96712
R: Jig
M: 6/8
L: 1/8
Q: 3/8=116
K: Emin
|:"Em"E2e BGE|"D"D2d AFD|"Em"E2e BGE|GFE "D"e2f|
"G (C)"gfe dcB|"G/B"ABG FED|"C"EFG ABc|BGF "D"E3:||
|:"Em"eBe gfe|"D"dAd fed|"Em"eBe gfe|"D"f/g/af gfe|
"G (C)"f/g/af gfe|"D (C)"dcB AFD|"C"EFG ABc|BGF "D"E3:||
T: My Darling Asleep
K: Dmaj
|:"D"fdd "A"cAA|"D/B"BGG "D/F#"A2G|"G"FAA "D/F#"def|"Em"gfg "A"eag|
"D"fdd "A"cAA|"D/B"BGG "D/F#"A2G|"G"FAA def|1 "A"gec "D"d2e:|2 "A"gec "D"d2A||
|:"D/F#"FAA BAG|"(G)"FAA BAG|"(Em)"FAA def|"G"gfg "A"eag|
"D"fdd "A"cAA|"D/B"BGG "D/F#"A2G|"G"FAA def|1 "A"gec "D"d2A:|2 "A"gec "D"d2e||
T: Cliffs of Moher
K: Ador
|:"Am"a3 bag|eaf ged|"G"c2A BAG|"(Em)"EFG ABd|
"Am"eaa bag|"(C)"eaf ged|"G"c2A BAG|1 "Em"EFG "G"A3:|2 "Em"EFG "G"ABd||
|:"Am"e2e dBA|e/f/ge dBA|"G"G2B dBA|GAB dBd|
[1 "Am"e3 dBA|e/f/ge dBA|"G"GAB dBG|"(Em)"EFG ABd:|
[2 "F"e2e dee|cee Bee|"G"EFG BAG|"(Em)"EDB, A,3||

